src/assets/compendia/icons/tokens-core/department-conn-rank-8-token.svg

<svg xmlns="http://www.w3.org/2000/svg" xml:space="preserve" style="fill-rule:evenodd;clip-rule:evenodd;stroke-linecap:round;stroke-miterlimit:1.5" viewBox="0 0 256 256"><path d="M0 0h256v256H0z" style="fill:none"/><g><circle cx="128" cy="128" r="128"/><path d="M128 0c70.645 0 128 57.355 128 128s-57.355 128-128 128S0 198.645 0 128 57.355 0 128 0m0 8C61.77 8 8 61.77 8 128s53.77 120 120 120 120-53.77 120-120S194.23 8 128 8" style="fill:#f54d3d"/><path d="M213.5 17.978c2.5-.5 5.083-2.25 7-4s4-4.5 4.5-6.5c.5 2 2.583 4.75 4.5 6.5s4.5 3.5 7 4c-2.5.5-6.664 2.154-8 5-1.917 4.084-3 15.5-3.5 19.5-.5-4-1.583-15.416-3.5-19.5-1.336-2.846-5.5-4.5-8-5m11.434-3.206-.424 2.182a.68.68 0 0 1-.534.534l-2.182.424a.068.068 0 0 0 0 .133l2.182.423a.675.675 0 0 1 .534.535l.424 2.182a.068.068 0 0 0 .132 0l.424-2.182a.675.675 0 0 1 .534-.535l2.182-.423a.068.068 0 0 0 0-.133l-2.182-.424a.68.68 0 0 1-.534-.534l-.424-2.182a.068.068 0 0 0-.132 0" style="fill:#f54d3d" transform="translate(-900.571 13.813)scale(4.57143)"/><path d="M1916.84 1455.5c3.71.33 7.44.5 11.16.5s7.45-.17 11.16-.5l-1.68-19.73c-3.15.29-6.32.43-9.48.43s-6.33-.14-9.48-.43z" style="fill:none;stroke:#f54d3d;stroke-width:8.66px" transform="matrix(.9375 0 0 .9091 -1679.5 -1075.64)"/><path d="M1894.87 1451.5a124.2 124.2 0 0 0 66.26 0l-4.97-19.12c-9.18 2.53-18.65 3.82-28.16 3.82s-18.97-1.29-28.16-3.82z" style="fill:none;stroke:#f54d3d;stroke-width:8.66px" transform="matrix(.9375 0 0 .9091 -1679.5 -1075.64)"/><path d="M1873.9 1443.63c16.95 8.15 35.41 12.37 54.1 12.37s37.15-4.22 54.1-12.37l-8.12-17.94c-14.4 6.92-30.09 10.51-45.98 10.51s-31.58-3.59-45.98-10.51z" style="fill:none;stroke:#f54d3d;stroke-width:8.66px" transform="matrix(.9375 0 0 .9091 -1679.5 -1075.64)"/></g></svg>

<?xml version="1.0" encoding="UTF-8" standalone="no"?>
<!DOCTYPE svg PUBLIC "-//W3C//DTD SVG 1.1//EN" "http://www.w3.org/Graphics/SVG/1.1/DTD/svg11.dtd">
<svg width="100%" height="100%" viewBox="0 0 256 256" version="1.1" xmlns="http://www.w3.org/2000/svg" xmlns:xlink="http://www.w3.org/1999/xlink" xml:space="preserve" xmlns:serif="http://www.serif.com/" style="fill-rule:evenodd;clip-rule:evenodd;stroke-linecap:round;stroke-miterlimit:1.5;">
    <g transform="matrix(1,0,0,1,-6900,-3300)">
        <g transform="matrix(1,0,0,1,6900,3300)">
            <rect id="department-conn-rank-8-token" x="0" y="0" width="256" height="256" style="fill:none;"/>
            <g id="department-conn-rank-8-token1" serif:id="department-conn-rank-8-token">
                <circle cx="128" cy="128" r="128"/>
                <path d="M128,0C198.645,0 256,57.355 256,128C256,198.645 198.645,256 128,256C57.355,256 0,198.645 0,128C0,57.355 57.355,0 128,0ZM128,8C61.77,8 8,61.77 8,128C8,194.23 61.77,248 128,248C194.23,248 248,194.23 248,128C248,61.77 194.23,8 128,8Z" style="fill:rgb(245,77,61);"/>
                <g transform="matrix(4.57143,0,0,4.57143,-900.571,13.813)">
                    <path d="M213.5,17.978C216,17.478 218.583,15.728 220.5,13.978C222.417,12.228 224.5,9.478 225,7.478C225.5,9.478 227.583,12.228 229.5,13.978C231.417,15.728 234,17.478 236.5,17.978C234,18.478 229.836,20.132 228.5,22.978C226.583,27.062 225.5,38.478 225,42.478C224.5,38.478 223.417,27.062 221.5,22.978C220.164,20.132 216,18.478 213.5,17.978ZM224.934,14.772L224.51,16.954C224.484,17.086 224.42,17.208 224.325,17.303C224.229,17.398 224.108,17.463 223.976,17.488L221.794,17.912C221.762,17.918 221.739,17.946 221.739,17.978C221.739,18.011 221.762,18.039 221.794,18.045L223.976,18.468C224.108,18.494 224.229,18.559 224.325,18.654C224.42,18.749 224.484,18.87 224.51,19.003L224.934,21.185C224.94,21.216 224.968,21.239 225,21.239C225.032,21.239 225.06,21.216 225.066,21.185L225.49,19.003C225.516,18.87 225.58,18.749 225.675,18.654C225.771,18.559 225.892,18.494 226.024,18.468L228.206,18.045C228.238,18.039 228.261,18.011 228.261,17.978C228.261,17.946 228.238,17.918 228.206,17.912L226.024,17.488C225.892,17.463 225.771,17.398 225.675,17.303C225.58,17.208 225.516,17.086 225.49,16.954L225.066,14.772C225.06,14.741 225.032,14.718 225,14.718C224.968,14.718 224.94,14.741 224.934,14.772Z" style="fill:rgb(245,77,61);"/>
                </g>
                <g transform="matrix(0.9375,0,0,0.909091,-1679.5,-1075.64)">
                    <path d="M1916.84,1455.5C1920.55,1455.83 1924.28,1456 1928,1456C1931.72,1456 1935.45,1455.83 1939.16,1455.5L1937.48,1435.77C1934.33,1436.06 1931.16,1436.2 1928,1436.2C1924.84,1436.2 1921.67,1436.06 1918.52,1435.77L1916.84,1455.5Z" style="fill:none;stroke:rgb(245,77,61);stroke-width:8.66px;"/>
                </g>
                <g transform="matrix(0.9375,0,0,0.909091,-1679.5,-1075.64)">
                    <path d="M1894.87,1451.5C1905.68,1454.49 1916.81,1456 1928,1456C1939.19,1456 1950.32,1454.49 1961.13,1451.5L1956.16,1432.38C1946.98,1434.91 1937.51,1436.2 1928,1436.2C1918.49,1436.2 1909.03,1434.91 1899.84,1432.38L1894.87,1451.5Z" style="fill:none;stroke:rgb(245,77,61);stroke-width:8.66px;"/>
                </g>
                <g transform="matrix(0.9375,0,0,0.909091,-1679.5,-1075.64)">
                    <path d="M1873.9,1443.63C1890.85,1451.78 1909.31,1456 1928,1456C1946.69,1456 1965.15,1451.78 1982.1,1443.63L1973.98,1425.69C1959.58,1432.61 1943.89,1436.2 1928,1436.2C1912.11,1436.2 1896.42,1432.61 1882.02,1425.69L1873.9,1443.63Z" style="fill:none;stroke:rgb(245,77,61);stroke-width:8.66px;"/>
                </g>
            </g>
        </g>
    </g>
</svg>
